packages/sights/assets/overlays/EqLDVYj3.svg

<svg width="500" height="375" viewBox="0 0 500 375" fill="none" xmlns="http://www.w3.org/2000/svg">
<path d="M38.9365 95.1602C40.6965 112.59 54.2965 156.31 54.2965 156.31C60.4165 167.01 93.8965 234.73 93.8965 234.73" stroke="white" stroke-miterlimit="10"/>
<path d="M38.9075 76.2801L40.9675 64.3601L47.8475 56.1001L59.0875 21.9401L65.9675 14.8301C78.1175 8.83006 127.648 5.83006 127.648 5.83006C189.098 1.94006 246.148 13.6801 246.148 13.6801L260.248 19.7601C268.498 23.5401 323.768 77.6601 323.768 77.6601C323.768 77.6601 407.767 103.18 444.947 147.82L447.747 172.28C447.747 172.28 458.747 192.46 457.837 209.28C457.837 209.28 457.227 222.43 442.247 269.51L441.637 287.51C441.637 287.51 395.927 328.51 284.948 368.38C284.948 368.38 161.588 368.38 145.538 348.2C145.538 348.2 94.7075 185.86 86.6775 194.65C86.6775 194.65 80.7375 195.75 93.6775 235.4" stroke="white" stroke-miterlimit="10"/>
<path d="M96.7467 208.42C93.5267 210.99 92.5667 220.74 93.6767 234.74C94.7667 248.59 97.8967 266.61 102.867 285.99C113.417 327.16 128.307 358.91 136.127 356.9L149.637 351" stroke="white" stroke-miterlimit="10"/>
<path d="M62.2168 171.41C61.5588 171.746 60.8308 171.92 60.0918 171.92C59.3528 171.92 58.6248 171.746 57.9668 171.41C57.9668 171.41 52.2168 161.95 46.9668 131.23" stroke="white" stroke-miterlimit="10"/>
<path d="M431.037 250.09L426.907 273.02L335.998 315.32L338.288 290.45L431.037 250.09Z" stroke="white" stroke-miterlimit="10"/>
<path d="M272.596 228.15L166.966 216.54L155.346 214.24L131.146 203.69L126.866 203.08L125.496 208.42L138.186 240.23C138.186 240.23 177.006 261.17 242.586 266.52L274.586 234.8L272.596 228.15Z" stroke="white" stroke-miterlimit="10"/>
<path d="M241.147 306.84L215.007 296.29C215.007 296.29 167.777 288.29 161.467 290.9C161.467 290.9 159.637 312.11 165.827 319.68C165.827 319.68 203.427 327.13 218.217 326.9C218.217 326.9 242.567 326.9 241.607 320.14C241.527 319.34 241.147 306.84 241.147 306.84Z" stroke="white" stroke-miterlimit="10"/>
<path d="M241.666 266.52L277.146 288.38L286.316 290.38C381.276 267.37 445.146 223 445.146 223L448.646 192.61L441.506 174.19C441.506 174.19 389.386 206.75 272.596 228.19" stroke="white" stroke-miterlimit="10"/>
<path d="M445.027 147.13L441.507 174.19" stroke="white" stroke-miterlimit="10"/>
<path d="M447.776 171.59L448.646 192.61" stroke="white" stroke-miterlimit="10"/>
<path d="M318.896 72.1602C318.896 72.1602 322.806 65.2702 322.236 62.0602C322.236 62.0602 312.486 55.0602 309.966 54.9602C308.798 54.7214 307.584 54.8788 306.515 55.4077C305.446 55.9365 304.585 56.8066 304.066 57.8802" stroke="white" stroke-miterlimit="10"/>
<path d="M87.3163 109.18C87.3163 109.18 81.0163 103.34 75.3963 102.99C75.3963 102.99 39.9663 99.2102 36.8763 94.1702L31.2563 80.4102C31.2563 80.4102 40.1963 73.4102 61.2563 70.4102L70.3063 72.3602L77.3063 79.9302L79.1463 84.3102L77.1963 92.2202L82.3563 95.1602L89.2363 101.27C89.2363 101.27 89.2663 108 87.3163 109.18Z" stroke="white" stroke-miterlimit="10"/>
<path d="M261.966 20.7601C261.966 20.7601 137.076 14.3701 91.2163 25.3801C91.2163 25.3801 102.216 89.2401 101.876 98.8701C101.876 98.8701 106.006 102.54 105.876 102.87C105.746 103.2 307.876 111.81 328.736 79.2501" stroke="white" stroke-miterlimit="10"/>
</svg>

<svg width="500" height="375" fill="none" xmlns="http://www.w3.org/2000/svg"><path d="M38.937 95.16c1.76 17.43 15.36 61.15 15.36 61.15 6.12 10.7 39.6 78.42 39.6 78.42" stroke="#fff" stroke-miterlimit="10"/><path d="m38.907 76.28 2.06-11.92 6.88-8.26 11.24-34.16 6.88-7.11c12.15-6 61.681-9 61.681-9 61.45-3.89 118.5 7.85 118.5 7.85l14.1 6.08c8.25 3.78 63.52 57.9 63.52 57.9s83.999 25.52 121.179 70.16l2.8 24.46s11 20.18 10.09 37c0 0-.61 13.15-15.59 60.23l-.61 18s-45.71 41-156.689 80.87c0 0-123.36 0-139.41-20.18 0 0-50.83-162.34-58.86-153.55 0 0-5.94 1.1 7 40.75" stroke="#fff" stroke-miterlimit="10"/><path d="M96.747 208.42c-3.22 2.57-4.18 12.32-3.07 26.32 1.09 13.85 4.22 31.87 9.19 51.25 10.55 41.17 25.44 72.92 33.26 70.91l13.51-5.9M62.217 171.41a4.67 4.67 0 0 1-4.25 0s-5.75-9.46-11-40.18M431.037 250.09l-4.13 22.93-90.909 42.3 2.29-24.87 92.749-40.36ZM272.596 228.15l-105.63-11.61-11.62-2.3-24.2-10.55-4.28-.61-1.37 5.34 12.69 31.81s38.82 20.94 104.4 26.29l32-31.72-1.99-6.65ZM241.147 306.84l-26.14-10.55s-47.23-8-53.54-5.39c0 0-1.83 21.21 4.36 28.78 0 0 37.6 7.45 52.39 7.22 0 0 24.35 0 23.39-6.76-.08-.8-.46-13.3-.46-13.3Z" stroke="#fff" stroke-miterlimit="10"/><path d="m241.666 266.52 35.48 21.86 9.17 2c94.96-23.01 158.83-67.38 158.83-67.38l3.5-30.39-7.14-18.42s-52.12 32.56-168.91 54M445.027 147.13l-3.52 27.06M447.776 171.59l.87 21.02M318.896 72.16s3.91-6.89 3.34-10.1c0 0-9.75-7-12.27-7.1a5.36 5.36 0 0 0-5.9 2.92M87.316 109.18s-6.3-5.84-11.92-6.19c0 0-35.43-3.78-38.52-8.82l-5.62-13.76s8.94-7 30-10l9.05 1.95 7 7.57 1.84 4.38-1.95 7.91 5.16 2.94 6.88 6.11s.03 6.73-1.92 7.91Z" stroke="#fff" stroke-miterlimit="10"/><path d="M261.966 20.76s-124.89-6.39-170.75 4.62c0 0 11 63.86 10.66 73.49 0 0 4.13 3.67 4 4-.13.33 202 8.94 222.86-23.62" stroke="#fff" stroke-miterlimit="10"/></svg>
